src/assets/filled/Text.svg

<?xml version="1.0" encoding="UTF-8"?>
<svg width="24" height="24" viewBox="0 0 24 24" xmlns="http://www.w3.org/2000/svg">
 <path d="m20.95 4.13c-0.29-0.42-0.66-0.79-1.08-1.08-0.95-0.69-2.19-1.05-3.68-1.05h-8.38c-0.2 0-0.4 0.01-0.59 0.03-3.28 0.21-5.22 2.34-5.22 5.78v8.38c0 1.49 0.36 2.73 1.05 3.68 0.29 0.42 0.66 0.79 1.08 1.08 0.82 0.6 1.86 0.95 3.09 1.03 0.19 0.01 0.39 0.02 0.59 0.02h8.38c3.64 0 5.81-2.17 5.81-5.81v-8.38c0-1.49-0.36-2.73-1.05-3.68zm-2.2 4.77c0 0.41-0.34 0.75-0.75 0.75s-0.75-0.34-0.75-0.75v-1.18c0-0.32-0.26-0.58-0.58-0.58h-3.92v9.72h1.78c0.41 0 0.75 0.34 0.75 0.75s-0.34 0.75-0.75 0.75h-5.06c-0.41 0-0.75-0.34-0.75-0.75s0.34-0.75 0.75-0.75h1.78v-9.72h-3.92c-0.32 0-0.58 0.26-0.58 0.58v1.18c0 0.41-0.34 0.75-0.75 0.75s-0.75-0.34-0.75-0.75v-1.18c0-1.15 0.93-2.08 2.08-2.08h9.33c1.15 0 2.08 0.93 2.08 2.08v1.18h0.01z"/>
</svg>

<svg width="24" height="24" viewBox="0 0 24 24"  xmlns="http://www.w3.org/2000/svg">
<path d="M20.95 4.13C20.66 3.71 20.29 3.34 19.87 3.05C18.92 2.36 17.68 2 16.19 2H7.81C7.61 2 7.41 2.01 7.22 2.03C3.94 2.24 2 4.37 2 7.81V16.19C2 17.68 2.36 18.92 3.05 19.87C3.34 20.29 3.71 20.66 4.13 20.95C4.95 21.55 5.99 21.9 7.22 21.98C7.41 21.99 7.61 22 7.81 22H16.19C19.83 22 22 19.83 22 16.19V7.81C22 6.32 21.64 5.08 20.95 4.13ZM18.75 8.9C18.75 9.31 18.41 9.65 18 9.65C17.59 9.65 17.25 9.31 17.25 8.9V7.72C17.25 7.4 16.99 7.14 16.67 7.14H12.75V16.86H14.53C14.94 16.86 15.28 17.2 15.28 17.61C15.28 18.02 14.94 18.36 14.53 18.36H9.47C9.06 18.36 8.72 18.02 8.72 17.61C8.72 17.2 9.06 16.86 9.47 16.86H11.25V7.14H7.33C7.01 7.14 6.75 7.4 6.75 7.72V8.9C6.75 9.31 6.41 9.65 6 9.65C5.59 9.65 5.25 9.31 5.25 8.9V7.72C5.25 6.57 6.18 5.64 7.33 5.64H16.66C17.81 5.64 18.74 6.57 18.74 7.72V8.9H18.75Z" />
</svg>
